X:142
T:Glory Of The Sun. (p)1657.PLFD1.142
M:C
L:1/4
Q:1/2=120
S:Playford, Dancing Master,Supplement to 3rd Ed.,1657
O:England;London
H:1657.
Z:Chris Partington.
K:D
FAFA|F/G/AFD|GBde/f/|gd/c/BG|
FAFA|F/G/A/G/FD|dddc/B/|A/B/c/d/BG|
|fdfd|f/g/a/g/fe/f/|g>dg>d|g/f/e/d/g>f/2g/4|
aaa>b|a/g/f/e/ f/g/a/f/|gd/c/Bd|ed/c/BG|]
